X:1
T:Cape Breton
L:1/8
M:6/8
I:linebreak $
K:D
V:1 treble 
V:1
|: (3(A/B/c/ | d3) A2 G | FEF DEF | G2 B e2 d | cea gfe | d3 A2 G | FEF DEF | GBe cBc | d3 d2 ::$ %9
 (c/d/ | e2) c Ace | f2 d Adf | gag fed | ecA ABc | dAF GBe | cBc dfa | fef gBc |$ d3 d2 :| %18
